X:1
T:Atonement (Brethren), 76.76.77.76
T:Atonement (Brethren), 76.76.77.76
T:Bohemian Brethren, 1566
T:Public Domain Courtesy of the Cyber Hymnal™
C:Bohemian Brethren, 1566
Z:Public Domain
Z:Courtesy of the Cyber Hymnal™
%%score 1 ( 2 3 )
L:1/8
Q:1/2=110
M:4/2
K:Ab
V:1 treble 
V:2 bass 
V:3 bass 
V:1
 [CF]6 [DF]2 | [DF]4 F4 [FB]6 [FA]2 | [=EG]12 F4 | [FA]4 [DG]4 [CF]4 [C=E]4 | [CF]8 [DF]6 [EF]2 | %5
 [DF]4 F4 [=EB]6 [FA]2 | [=EG]12 F4 | [FA]4 [DG]4 [CF]4 [C=E]4 | [CF]8 [EG]6 [EA]2 | %9
 [FB]4 [EG]4 [EA]4 [EB]4 | [Ec]12 [G=d]4 | [Ge]6 [G=d]2 [Gc]4 [Ad]4 | [Gc]4 [G=B]4 [=Ec]8 | %13
 [Fc]6 [=Ec]2 [Ec]4 [Fc]4 | [=EB]6 [FA]2 [EG]4 F4 | [FA]4 [DG]4 [CF]4 [C=E]4 | [CF]8 |] %17
V:2
 [F,A,]6 [D,A,]2 | [B,,B,]4 [=A,,C]4 [B,,D]6 [F,C]2 | [C,C]12 (A,2 B,2) | %3
 [A,,C]4 [B,,B,]4 [C,A,]4 [C,G,]4 | [F,A,]8 [D,A,]6 [C,=A,]2 | [B,,B,]4 [A,,C]4 [G,,C]6 [F,,C]2 | %6
 [C,C]12 (A,2 B,2) | [A,,C]4 [B,,B,]4 [C,A,]4 [C,G,]4 | [F,A,]8 [E,B,]6 [C,C]2 | %9
 [B,,D]4 B,4 [C,C]4 (E2 D2) | [A,,C]12 [G,,=B,]4 | [C,C]6 [=D,F]2 [E,E]4 [F,=D]4 | %12
 [G,E]4 [G,,=D]4 [C,C]8 | [F,A,]6 [C,G,]2 [B,,G,]4 [A,,F,]4 | [G,,A,]6 [F,,B,]2 [C,C]4 (A,2 B,2) | %15
 [A,,C]4 [B,,B,]4 [C,A,]4 [C,G,]4 | [F,,A,]8 |] %17
V:3
 x8 | x16 | x12 D,4 | x16 | x16 | x16 | x12 D,4 | x16 | x16 | x4 (E,2 D,2) x2 G,,4 x2 | x16 | x16 | %12
 x16 | x16 | x12 D,4 | x16 | x8 |] %17

